img/pin.svg

<svg width="18" height="18" viewBox="0 0 18 18" fill="none" xmlns="http://www.w3.org/2000/svg">
<path d="M6.73084 11.2692L16.2337 1.76642M2.48664 4.99807L14.1349 1.11532C15.8344 0.54883 17.4512 2.16564 16.8847 3.8651L13.0019 15.5134C12.3895 17.3507 9.86133 17.5304 8.9952 15.7981L7.05483 11.9174C6.84447 11.4967 6.50334 11.1555 6.08263 10.9452L2.20188 9.0048C0.469619 8.13866 0.64929 5.61052 2.48664 4.99807Z" stroke="#CDCECF" stroke-width="1.5" stroke-linecap="round" stroke-linejoin="round"/>
</svg>

<svg width="18" height="18" fill="none" xmlns="http://www.w3.org/2000/svg"><path d="m6.73 11.27 9.504-9.504M2.487 4.998l11.648-3.883c1.7-.566 3.316 1.05 2.75 2.75l-3.883 11.648c-.613 1.838-3.14 2.017-4.007.285l-1.94-3.88a2.174 2.174 0 0 0-.972-.973l-3.881-1.94C.47 8.139.649 5.61 2.487 4.998Z" stroke="#CDCECF" stroke-width="1.5" stroke-linecap="round" stroke-linejoin="round"/></svg>
